X:1
T:Title
%%score { ( 1 3 ) | ( 2 4 ) }
L:1/8
M:4/4
K:A
V:1 treble nm="Grand Piano"
V:3 treble 
V:2 bass 
V:4 bass 
V:1
 z4 z2[Q:1/4=100] [A,C]>[B,D] | [CE]2 [Ec]>[DB] [CA]2 [CA]>[EA] | [FA]2 [DF]>[FA] [CE]2 [CE]>[CE] | %3
 [CA]2 [CA]>[CA] [EA]2 [DG]>[CA] | B6 B>B | c2 c>B A2 [EA]>[EA] | %6
[M:9/8] [FB]2 [FB]- [FB]/[Fc]/ [Fd]2- [Fd]F>F |[M:4/4] E2 E>E c2 B>B |[M:3/4] [A,CA]6 | %9
[M:1/4] G>A |[M:4/4] B4 [EG]2 z2 | d2 c>B c2 c>d | e>e e>e e2 c>[EA] | [EB]6 z2 | %14
 [Ee]4 [Ec]2 [EA]2 | [EG]2 F>^E F2 [Fd]>[Fd] | c6 B>B |[M:3/4] [CA]6 |] %18
V:2
 z4 z2 [A,,E,]>[A,,E,] | [A,,A,]2 [A,,A,]>[A,,A,] [A,,A,]2 [A,,A,]>[C,A,] | %2
 [D,A,]2 [D,A,]>[D,A,] [A,,A,]2 [A,,A,]>[A,,A,] | %3
 [A,,E,]2 [A,,E,]>[A,,E,] [C,E,]2 [B,,E,]>[A,,A,] | [E,G,E]6 [E,G,E]>[E,G,E] | %5
 [A,E]2 [A,E]>[A,D] [A,C]2 [C,A,]>[C,A,] | %6
[M:9/8] [D,D]2 [D,D]- [D,D]/[D,A,]/ [D,A,]2- [D,A,][D,A,D]>[D,A,D] | %7
[M:4/4] [E,A,C]2 [E,A,C]>[E,A,C] [E,A,E]2 [E,G,D]>[E,G,D] |[M:3/4] A,,6 |[M:1/4] E>E | %10
[M:4/4] E4 z4 | [E,B,E]2 [E,A,E]>[E,G,E][K:treble] [A,E]2 [A,E]>[A,B,E] | %12
 [A,CA]>[A,CA] [A,CA]>[A,CA] [A,CA]2[K:bass] [A,E]>[C,A,] | [E,G,]2 E,>E, E,D, [C,A,]>[B,,B,] | %14
 [A,,C]4 [A,,A,]2 [C,A,]2 | [D,A,]2 [D,A,D]>[D,G,D] [D,A,D]2 [B,,A,]>[B,,A,] | %16
 [E,A,E]6 [E,G,D]>[E,G,D] |[M:3/4] [A,,A,]6 |] %18
V:3
 x8 | x8 | x8 | x8 | x8 | x8 |[M:9/8] x9 |[M:4/4] x8 |[M:3/4] x6 |[M:1/4] x2 | %10
[M:4/4] z2 G,>G, B,>B, E2 | x8 | x8 | z2 G,>G, G,2 [Ec]>[Ed] | x8 | x8 | x8 |[M:3/4] x6 |] %18
V:4
 x8 | x8 | x8 | x8 | x8 | x8 |[M:9/8] x9 |[M:4/4] x8 |[M:3/4] x6 |[M:1/4] x2 | %10
[M:4/4] z2 E,>E, E,>E, [E,G,]2 | x4[K:treble] x4 | x6[K:bass] x2 | x8 | x8 | x8 | x8 |[M:3/4] x6 |] %18

